ix/cloud-cross_outline.svg

<svg viewBox="0 0 24 24" fill="none" xmlns="http://www.w3.org/2000/svg" height="1em" width="1em">
  <path d="M16.6497 20.75C16.6397 20.75 16.6197 20.75 16.6097 20.75C16.1997 20.75 15.8597 20.41 15.8697 19.99C15.8697 19.58 16.2097 19.25 16.6197 19.25C16.6297 19.25 16.6497 19.25 16.6597 19.25C17.7997 19.25 18.8897 18.83 19.7297 18.05C21.2797 16.69 21.3897 14.75 20.9697 13.38C20.5497 12.01 19.3897 10.46 17.3597 10.2C17.0297 10.16 16.7697 9.91001 16.7097 9.58001C16.3097 7.19001 15.0197 5.54001 13.0797 4.94001C11.0597 4.32001 8.72973 4.93001 7.26973 6.46001C5.84973 7.95002 5.51973 10.02 6.33973 12.31C6.47973 12.7 6.27973 13.13 5.88973 13.27C5.49973 13.41 5.06973 13.21 4.92973 12.82C3.91973 10.01 4.37973 7.32001 6.18973 5.43001C8.02973 3.50001 10.9797 2.73001 13.5297 3.52001C15.8597 4.24001 17.5097 6.16001 18.0997 8.82001C20.1397 9.28001 21.7697 10.82 22.4197 12.95C23.1297 15.27 22.4797 17.65 20.7497 19.17C19.6097 20.19 18.1597 20.75 16.6497 20.75Z" fill="#292D32"/>
  <path d="M5.57008 20.75C5.55008 20.75 5.53008 20.75 5.52008 20.75C2.64008 20.55 1.33008 18.29 1.33008 16.28C1.33008 14.27 2.64008 12.02 5.52008 11.81C6.27008 11.8 6.99008 11.97 7.63008 12.29C8.00008 12.48 8.14008 12.93 7.96008 13.3C7.77008 13.67 7.32008 13.81 6.95008 13.63C6.53008 13.41 6.04008 13.32 5.59008 13.31C3.70008 13.45 2.84008 14.9 2.84008 16.28C2.84008 17.66 3.70008 19.11 5.64008 19.25C6.05008 19.28 6.36008 19.64 6.33008 20.05C6.29008 20.45 5.96008 20.75 5.57008 20.75Z" fill="#292D32"/>
  <path d="M15.8206 10.64C15.5506 10.64 15.2806 10.49 15.1506 10.22C14.9606 9.84997 15.1106 9.39997 15.4906 9.20997C16.1006 8.89997 16.7906 8.72997 17.4706 8.71997C17.8606 8.73997 18.2306 9.03997 18.2306 9.45997C18.2406 9.86997 17.9106 10.22 17.4906 10.22C17.0306 10.23 16.5706 10.34 16.1506 10.55C16.0506 10.62 15.9306 10.64 15.8206 10.64Z" fill="#292D32"/>
  <path d="M9.56 22.16C9.37 22.16 9.18 22.09 9.03 21.94C8.74 21.65 8.74 21.17 9.03 20.88L11.86 18.05C12.15 17.76 12.63 17.76 12.92 18.05C13.21 18.34 13.21 18.82 12.92 19.11L10.09 21.94C9.94 22.09 9.75 22.16 9.56 22.16Z" fill="#292D32"/>
  <path d="M12.39 22.16C12.2 22.16 12.01 22.09 11.86 21.94L9.03 19.11C8.74 18.82 8.74 18.34 9.03 18.05C9.32 17.76 9.8 17.76 10.09 18.05L12.92 20.88C13.21 21.17 13.21 21.65 12.92 21.94C12.77 22.09 12.58 22.16 12.39 22.16Z" fill="#292D32"/>
</svg>

<svg viewBox="0 0 24 24" fill="none" xmlns="http://www.w3.org/2000/svg" height="1em" width="1em">
  <path d="M16.65 20.75h-.04c-.41 0-.75-.34-.74-.76 0-.41.34-.74.75-.74h.04c1.14 0 2.23-.42 3.07-1.2 1.55-1.36 1.66-3.3 1.24-4.67-.42-1.37-1.58-2.92-3.61-3.18a.753.753 0 0 1-.65-.62c-.4-2.39-1.69-4.04-3.63-4.64-2.02-.62-4.35-.01-5.81 1.52-1.42 1.49-1.75 3.56-.93 5.85a.75.75 0 1 1-1.41.51c-1.01-2.81-.55-5.5 1.26-7.39 1.84-1.93 4.79-2.7 7.34-1.91 2.33.72 3.98 2.64 4.57 5.3 2.04.46 3.67 2 4.32 4.13.71 2.32.06 4.7-1.67 6.22a6.136 6.136 0 0 1-4.1 1.58Z" fill="#292D32"/>
  <path d="M5.57 20.75h-.05c-2.88-.2-4.19-2.46-4.19-4.47s1.31-4.26 4.19-4.47c.75-.01 1.47.16 2.11.48.37.19.51.64.33 1.01-.19.37-.64.51-1.01.33-.42-.22-.91-.31-1.36-.32-1.89.14-2.75 1.59-2.75 2.97 0 1.38.86 2.83 2.8 2.97.41.03.72.39.69.8-.04.4-.37.7-.76.7Zm10.25-10.11c-.27 0-.54-.15-.67-.42a.745.745 0 0 1 .34-1.01c.61-.31 1.3-.48 1.98-.49.39.02.76.32.76.74.01.41-.32.76-.74.76-.46.01-.92.12-1.34.33-.1.07-.22.09-.33.09ZM9.56 22.16c-.19 0-.38-.07-.53-.22a.754.754 0 0 1 0-1.06l2.83-2.83c.29-.29.77-.29 1.06 0 .29.29.29.77 0 1.06l-2.83 2.83c-.15.15-.34.22-.53.22Z" fill="#292D32"/>
  <path d="M12.39 22.16c-.19 0-.38-.07-.53-.22l-2.83-2.83a.754.754 0 0 1 0-1.06c.29-.29.77-.29 1.06 0l2.83 2.83c.29.29.29.77 0 1.06-.15.15-.34.22-.53.22Z" fill="#292D32"/>
</svg>
